client/src/assets/icons/cat.svg

<svg width="58" height="58" viewBox="0 0 58 58" fill="none" xmlns="http://www.w3.org/2000/svg">
<path fill-rule="evenodd" clip-rule="evenodd" d="M43.8097 20.3031C48.6962 19.4269 51.8634 15.9562 51.737 13.3265C51.534 9.08115 48.4694 6.94758 41.8625 6.92065H41.7776C41.4226 6.92125 41.08 6.79068 40.8154 6.55402C40.5508 6.31735 40.383 5.99129 40.3442 5.63844C40.3256 5.47145 40.3413 5.30243 40.3902 5.14169C40.4391 4.98096 40.5203 4.83188 40.6288 4.70355C40.7372 4.57523 40.8707 4.47035 41.021 4.39532C41.1714 4.32029 41.3354 4.27668 41.5031 4.26715L41.7434 4.25265C43.7092 4.12837 45.8821 4.05587 47.0546 4.33344C51.9431 5.4924 54.6567 8.44005 54.8846 13.1753C55.0658 16.9412 52.2642 20.6221 48.3213 23.5325C48.2833 23.5606 48.2449 23.5882 48.2063 23.6153C48.9696 24.9514 49.4574 26.4428 49.6718 28.0917C50.4155 32.8643 49.7236 35.8326 50.2539 37.7984C50.7852 39.7652 53.2015 40.8434 54.1554 43.0402C55.1083 45.2359 54.9322 46.1991 54.6526 47.9287C54.4879 48.9541 54.115 50.4538 53.5361 52.4258C53.4721 52.6435 53.3393 52.8346 53.1577 52.9705C52.976 53.1064 52.7552 53.1798 52.5283 53.1798H49.0369C48.4569 53.1798 47.9867 52.7096 47.9867 52.1296V51.6014C47.9867 51.4625 48.0142 51.325 48.0677 51.1968C48.1212 51.0686 48.1996 50.9524 48.2983 50.8547C48.3971 50.757 48.5142 50.6799 48.6429 50.6278C48.7717 50.5757 48.9095 50.5496 49.0483 50.5512C49.5196 50.5574 49.9214 50.4331 50.2539 50.1783C51.0939 49.5362 51.1632 49.1778 51.1632 47.9287C51.1632 47.096 50.8608 46.2581 50.2539 45.415C47.82 43.8325 45.7848 42.5958 43.9889 41.6865C43.8045 43.5114 43.4399 45.1706 42.8983 46.6641C42.3286 48.2343 41.3385 50.2322 39.9289 52.6568C39.8365 52.8159 39.704 52.9479 39.5446 53.0397C39.3852 53.1315 39.2045 53.1798 39.0205 53.1798H36.2573C35.6876 53.1798 35.2215 52.7262 35.2081 52.1565L35.1956 51.6801C35.1883 51.4053 35.2889 51.1386 35.476 50.9373C35.6631 50.7359 35.9216 50.6159 36.1961 50.6029L37.641 50.5346C38.0677 50.5139 38.4395 50.2373 38.5814 49.8344C39.0599 48.4756 39.2567 47.1405 39.1718 45.8283C39.0744 44.3483 38.5824 42.3307 37.6948 39.7735C34.0077 39.7404 26.5278 41.3405 24.8054 41.4835C24.3994 41.5177 23.982 41.5145 23.5542 41.4773C23.2087 42.5661 22.9922 43.6916 22.909 44.8309C22.8023 46.2094 22.793 48.634 22.88 52.1037C22.8834 52.2438 22.8588 52.3831 22.8076 52.5135C22.7564 52.644 22.6795 52.7628 22.5817 52.8631C22.4838 52.9634 22.3669 53.0431 22.2377 53.0975C22.1086 53.1518 21.9699 53.1798 21.8298 53.1798H18.9598C18.3798 53.1798 17.9096 52.7096 17.9096 52.1296V51.4087C17.9096 50.8287 18.3798 50.3585 18.9598 50.3585H19.402C19.566 50.3585 19.7275 50.3189 19.8729 50.2431C20.0183 50.1673 20.1433 50.0576 20.2372 49.9232C20.3312 49.7888 20.3913 49.6338 20.4125 49.4712C20.4337 49.3086 20.4154 49.1433 20.359 48.9893C19.815 47.5179 19.3921 46.0045 19.0944 44.4643L15.6434 52.5428C15.4777 52.9291 15.0976 53.1798 14.6771 53.1798H10.8657C10.2857 53.1798 9.81443 52.7096 9.81443 52.1296V51.5931C9.81443 51.0835 10.18 50.6475 10.6813 50.5594L12.4959 50.2373C12.7238 50.1959 12.933 50.082 13.0894 49.91C13.8268 49.0991 14.3011 48.0882 14.5145 46.8785C15.0406 43.8946 15.3741 43.5715 14.5145 40.7025C14.2349 39.7652 12.1821 38.8517 10.8688 34.6995C10.0268 32.0419 9.28104 27.5272 8.62958 21.1555C8.60614 20.9257 8.5076 20.71 8.34919 20.5419C8.19079 20.3737 7.98137 20.2625 7.75336 20.2254L5.73579 19.8992C5.42508 19.8484 5.15268 19.661 4.99422 19.3886L3.39715 16.6294C3.38355 16.6058 3.36904 16.5826 3.35365 16.56C3.19726 16.3456 3.11114 16.088 3.10715 15.8226C3.10715 15.6196 3.15997 15.4104 3.26561 15.1939C3.32154 15.08 3.39715 14.9764 3.49036 14.8894L5.57733 12.9288C5.72233 12.7911 5.82693 12.615 5.87665 12.4213L5.99472 11.9522C6.10036 11.5348 6.33236 11.1588 6.65758 10.8771C7.28522 10.3364 7.74818 9.97394 8.0475 9.78958C8.42036 9.56069 9.19508 9.28519 10.3696 8.96515C9.773 8.13037 9.44572 7.40019 9.38772 6.77358C9.29968 5.83419 9.22511 4.90412 9.60522 4.86787C9.86 4.84405 10.5042 5.54419 11.5389 6.9683C11.4581 5.16926 11.6394 4.37383 12.0847 4.58408C12.5301 4.7933 13.5057 6.00612 15.0158 8.22255L16.4886 9.9004C17.204 10.7153 17.7303 11.6784 18.0297 12.7207C18.7734 15.3099 19.4818 17.1732 20.1529 18.3125C21.3533 20.3445 22.8251 22.8468 27.608 22.476C32.3899 22.1063 33.9984 21.1379 37.1842 20.6366C38.8149 20.3879 40.4579 20.2285 42.1059 20.1592C42.6777 20.1327 43.2505 20.1811 43.8097 20.3031Z" fill="#011034"/>
</svg>

<svg xmlns="http://www.w3.org/2000/svg" width="58" height="58" fill="none" viewBox="0 0 58 58">
  <path fill="#011034" fill-rule="evenodd" d="M43.81 20.303c4.886-.876 8.053-4.347 7.927-6.977-.203-4.245-3.268-6.378-9.875-6.405h-.084a1.44 1.44 0 0 1-1.434-1.283 1.235 1.235 0 0 1 1.16-1.37l.24-.015c1.965-.125 4.138-.197 5.31.08 4.89 1.16 7.603 4.107 7.83 8.842.182 3.766-2.62 7.447-6.563 10.357a5.754 5.754 0 0 1-.115.083c.764 1.336 1.251 2.828 1.466 4.477.743 4.772.052 7.74.582 9.706.531 1.967 2.948 3.045 3.901 5.242.953 2.196.777 3.16.498 4.889-.165 1.025-.538 2.525-1.117 4.497a1.05 1.05 0 0 1-1.008.754h-3.491c-.58 0-1.05-.47-1.05-1.05v-.53a1.05 1.05 0 0 1 1.061-1.05c.471.006.873-.118 1.206-.373.84-.642.91-1 .91-2.25 0-.832-.303-1.67-.91-2.513-2.434-1.582-4.47-2.82-6.265-3.728-.184 1.824-.55 3.484-1.09 4.977-.57 1.57-1.56 3.568-2.97 5.993a1.05 1.05 0 0 1-.909.523h-2.763c-.57 0-1.035-.454-1.049-1.023l-.012-.477a1.05 1.05 0 0 1 1-1.077l1.445-.068a1.05 1.05 0 0 0 .94-.7c.479-1.36.676-2.694.59-4.007-.097-1.48-.589-3.497-1.476-6.055-3.687-.033-11.167 1.567-12.89 1.71a7.33 7.33 0 0 1-1.25-.006 14.604 14.604 0 0 0-.646 3.354c-.107 1.378-.116 3.803-.03 7.273a1.05 1.05 0 0 1-1.05 1.076h-2.87c-.58 0-1.05-.47-1.05-1.05v-.721c0-.58.47-1.05 1.05-1.05h.443a1.019 1.019 0 0 0 .957-1.37 28.81 28.81 0 0 1-1.265-4.525l-3.45 8.079a1.052 1.052 0 0 1-.967.637h-3.811c-.58 0-1.052-.47-1.052-1.05v-.537c0-.51.366-.946.867-1.034l1.815-.322a1.05 1.05 0 0 0 .593-.327c.738-.81 1.212-1.822 1.425-3.031.527-2.984.86-3.307 0-6.176-.28-.938-2.332-1.851-3.645-6.004-.842-2.657-1.588-7.172-2.24-13.543a1.05 1.05 0 0 0-.876-.93l-2.017-.327a1.055 1.055 0 0 1-.742-.51l-1.597-2.76a1.092 1.092 0 0 0-.043-.069 1.284 1.284 0 0 1-.247-.737c0-.203.053-.413.159-.63a1.06 1.06 0 0 1 .224-.304l2.087-1.96c.145-.138.25-.314.3-.508l.118-.469c.105-.417.337-.793.663-1.075.627-.54 1.09-.903 1.39-1.087.372-.23 1.147-.505 2.322-.825-.597-.835-.924-1.565-.982-2.191-.088-.94-.163-1.87.217-1.906.255-.024.9.676 1.934 2.1-.08-1.799.1-2.594.546-2.384.445.21 1.42 1.422 2.93 3.639L16.489 9.9a7.35 7.35 0 0 1 1.542 2.82c.743 2.59 1.452 4.453 2.123 5.592 1.2 2.032 2.672 4.535 7.455 4.164 4.782-.37 6.39-1.338 9.576-1.84a45.253 45.253 0 0 1 4.922-.477 6.567 6.567 0 0 1 1.704.144Z" clip-rule="evenodd"/>
</svg>
